.local/share/icons/Gruvbox-Plus-Dark/mimetypes/scalable/gdtable.svg

<svg width="256" height="256" viewBox="0 0 256 256" fill="none" xmlns="http://www.w3.org/2000/svg">
<g opacity="0.4" filter="url(#filter0_f)">
<path d="M55.0839 15.5636H155.608L216.009 75.7129L216.011 224.609C216.011 233.52 208.749 240.737 199.838 240.737H55.0838C46.1734 240.737 39 233.564 39 224.654V31.6474C39 22.737 46.1734 15.5636 55.0838 15.5636H55.0839Z" fill="#282828"/>
</g>
<path d="M55.0839 15H155.608L216.009 75.1493L216.011 224.045C216.011 232.956 208.749 240.174 199.838 240.174H55.0838C46.1734 240.174 39 233 39 224.09V31.0838C39 22.1734 46.1734 15 55.0838 15H55.0839Z" fill="#ebdbb2"/>
<path d="M171.164 90L146.857 120.87L135.457 107.045L110.038 139.92L98.686 126.932L72 160.234L75.432 161.998L98.836 132.798L110.252 145.853L135.578 113.108L146.948 126.888L171.434 95.778L180.724 105.84L184 103.897L171.17 90H171.164ZM79.031 92.779H93.66V101.556H79.031V92.779ZM79.031 104.482H93.66V113.259H79.031V104.482ZM96.586 92.779H117.067V101.556H96.586V92.779ZM96.586 104.482H117.067V113.259H96.586V104.482ZM166.805 119.111H178.508V165.924H166.805V119.111ZM143.399 136.666H155.102V165.924H143.399V136.666ZM119.992 151.295H131.695V165.924H119.992V151.295Z" fill="url(#paint0_linear)"/>
<path fill-rule="evenodd" clip-rule="evenodd" d="M155.608 20.3191H55.0839C49.1112 20.3191 44.3191 25.1111 44.3191 31.0838V224.09C44.3191 230.063 49.1111 234.855 55.0838 234.855H199.838C205.83 234.855 210.692 229.999 210.692 224.046V75.1493L155.608 20.3191ZM155.608 15H55.0839C46.1735 15 39 22.1734 39 31.0838V224.09C39 233 46.1734 240.174 55.0838 240.174H199.838C208.749 240.174 216.011 232.956 216.011 224.045L216.009 75.1493L155.608 15Z" fill="url(#paint1_linear)"/>
<path opacity="0.25" d="M155.608 17V61.2306C155.608 70.141 162.867 77.1605 171.777 77.1605L216.009 77.1493V75.1493L155.608 17Z" fill="#282828"/>
<path d="M155.608 15V59.2306C155.608 68.141 162.867 75.1605 171.777 75.1605L216.009 75.1493L155.608 15Z" fill="url(#paint2_linear)"/>
<defs>
<filter id="filter0_f" x="23.8778" y="0.441412" width="207.255" height="255.418" filterUnits="userSpaceOnUse" color-interpolation-filters="sRGB">
<feFlood flood-opacity="0" result="BackgroundImageFix"/>
<feBlend mode="normal" in="SourceGraphic" in2="BackgroundImageFix" result="shape"/>
<feGaussianBlur stdDeviation="7.5611" result="effect1_foregroundBlur"/>
</filter>
<linearGradient id="paint0_linear" x1="128" y1="165.924" x2="128" y2="90" gradientUnits="userSpaceOnUse">
<stop stop-color="#427b58"/>
<stop offset="1" stop-color="#689d6a"/>
</linearGradient>
<linearGradient id="paint1_linear" x1="127.506" y1="240.174" x2="127.506" y2="15" gradientUnits="userSpaceOnUse">
<stop stop-color="#427b58"/>
<stop offset="1" stop-color="#689d6a"/>
</linearGradient>
<linearGradient id="paint2_linear" x1="185.808" y1="75.1605" x2="185.808" y2="15" gradientUnits="userSpaceOnUse">
<stop stop-color="#427b58"/>
<stop offset="1" stop-color="#689d6a"/>
</linearGradient>
</defs>
</svg>

<svg width="256" height="256" fill="none" version="1.1" viewBox="0 0 256 256" xmlns="http://www.w3.org/2000/svg">
  <path d="m55.08 15h100.5l60.4 60.15 2e-3 148.9c0 8.911-7.262 16.13-16.17 16.13h-144.8c-8.91 0-16.08-7.174-16.08-16.08v-193c0-8.91 7.173-16.08 16.08-16.08h1e-4z" fill="#ebdbb2"/>
  <path d="m171.2 90-24.31 30.87-11.4-13.82-25.42 32.88-11.35-12.99-26.69 33.3 3.432 1.764 23.4-29.2 11.42 13.06 25.33-32.74 11.37 13.78 24.49-31.11 9.29 10.06 3.276-1.943-12.83-13.9h-6e-3zm-92.13 2.779h14.63v8.777h-14.63v-8.777zm0 11.7h14.63v8.777h-14.63v-8.777zm17.56-11.7h20.48v8.777h-20.48v-8.777zm0 11.7h20.48v8.777h-20.48v-8.777zm70.22 14.63h11.7v46.81h-11.7v-46.81zm-23.41 17.56h11.7v29.26h-11.7v-29.26zm-23.41 14.63h11.7v14.63h-11.7v-14.63z" fill="url(#paint0_linear)"/>
  <path d="m155.6 20.32h-100.5c-5.973 0-10.76 4.792-10.76 10.76v193c0 5.973 4.792 10.76 10.76 10.76h144.8c5.992 0 10.85-4.856 10.85-10.81v-148.9l-55.08-54.83zm0-5.319h-100.5c-8.91 0-16.08 7.173-16.08 16.08v193c0 8.91 7.173 16.08 16.08 16.08h144.8c8.911 0 16.17-7.218 16.17-16.13l-2e-3 -148.9-60.4-60.15z" clip-rule="evenodd" fill="url(#paint1_linear)" fill-rule="evenodd"/>
  <path d="m155.6 17v44.23c0 8.91 7.259 15.93 16.17 15.93l44.23-0.0112v-2l-60.4-58.15z" fill="#282828" opacity=".25"/>
  <path d="m155.6 15v44.23c0 8.91 7.259 15.93 16.17 15.93l44.23-0.0112-60.4-60.15z" fill="url(#paint2_linear)"/>
  <defs>
    <linearGradient id="paint0_linear" x1="128" x2="128" y1="165.9" y2="90" gradientUnits="userSpaceOnUse">
      <stop stop-color="#427b58" offset="0"/>
      <stop stop-color="#689d6a" offset="1"/>
    </linearGradient>
    <linearGradient id="paint1_linear" x1="127.5" x2="127.5" y1="240.2" y2="15" gradientUnits="userSpaceOnUse">
      <stop stop-color="#427b58" offset="0"/>
      <stop stop-color="#689d6a" offset="1"/>
    </linearGradient>
    <linearGradient id="paint2_linear" x1="185.8" x2="185.8" y1="75.16" y2="15" gradientUnits="userSpaceOnUse">
      <stop stop-color="#427b58" offset="0"/>
      <stop stop-color="#689d6a" offset="1"/>
    </linearGradient>
  </defs>
</svg>
